dist/img/svg/youtube-icon.svg

<svg width="26" height="19" viewBox="0 0 26 19" fill="none" xmlns="http://www.w3.org/2000/svg">
<path d="M20.61 0.183594H5.98961C3.12627 0.183594 0.799805 2.55085 0.799805 5.4644V12.8973C0.799805 15.8163 3.12627 18.1781 5.98961 18.1781H20.6046C23.4733 18.1781 25.7944 15.8108 25.7944 12.8973V5.4644C25.7998 2.55085 23.4733 0.183594 20.61 0.183594ZM17.0959 9.54779L10.2575 12.8642C10.0731 12.9524 9.86705 12.82 9.86705 12.6103V5.7679C9.86705 5.55821 10.084 5.42578 10.2629 5.51958L17.1013 9.04564C17.3074 9.15048 17.302 9.44846 17.0959 9.54779Z" fill="white"/>
</svg>

<svg width="26" height="19" fill="none" xmlns="http://www.w3.org/2000/svg"><path d="M20.61.184H5.99C3.126.184.8 2.55.8 5.464v7.433c0 2.92 2.326 5.281 5.19 5.281h14.615c2.868 0 5.19-2.367 5.19-5.28V5.463C25.8 2.551 23.472.184 20.61.184zm-3.514 9.364l-6.838 3.316a.272.272 0 01-.39-.254V5.768c0-.21.216-.342.395-.248L17.1 9.046a.281.281 0 01-.005.502z" fill="#fff"/></svg>
